X: 74
T: SLIDES: Cat's Rambles Set
T: Priest / Is It the Priest You Want?
C: C: Trad.; S: Bothy Band + Denis Murphy / Johnny O'Leary / Julia Clifford
C: Set Leaders: Oliushka, Anton
Z: Anton Zille ed., Oleg Naumov arr.; Kuddel / Will Harmon / nobu at The Session
N: https://thesession.org/members/26966/sets/63219
R: Slide
M: 12/8
L: 1/8
Q: 3/8=130
K: Gmaj
|:g|"G"edB d2 B d2 B B2 g|edB d2 B "C"c2 A "D"A2 g|
"G"edB d2 B BAB ~g3|"C"BAB ~g3 "D"B2 G G2:||
|:f|"Em"gbg f/g/af g2 e e2 d|"C"eaa aga "D"b2 e e2 f|
"G"gbg "D/F#"faf "Em"g2 e e2 d|"C"BAB "D"~g3 "G"B2 G G2:||
T: Cat's Rambles to the Child's Saucepan / Mary Willie's
K: Dmaj
A|:"D"d2 ef2 e dcd "D/B"~B3|"G"g2 A cBA "A"e2 A cBA|
"D"d2 ef2 e dcd "D/B"~B3|"G"g2 A cBA "D"d3 "A"d2 A:||
|:"D"d2 ef2 a "D"baf "A"a2 f|"A/E"e2 A cBA "A"efe cBA|
"D"d2 ef2 a "D/F#"baf a2 f|"A"e2 A cBA "D"d3 d2 A:||
T: This Is My Love, Do You Like Her? / Biddy Crowley's Ball / Pussycat up in a Plum Tree
K: Ador
"A5"A2A AGE c2B c2d|e2e ede g3 g2e|
"D/F#"def "G"g2e dBA G2A|1 "Em"B2e dBG "Csus2"A2B "(D)"c2B:|2 "Em"B2e dBG "Csus2"A3 "D"ABd||
|:"A5"e2a age "G"d2g gfg|"A5"eaa agf "G"g2b a2g|
"D/F#"eaf "G"g2e dBA G2A|1 "Em"B2e dBG A3 ABd:|2 "Em"B2e dBG "Csus2"A2B "D"c2B||

